SVG_Azure_Grouped/AI/Cognitive Services Conversation.svg

<?xml version="1.0" encoding="UTF-8" standalone="no"?>
<!-- Generated by Microsoft Visio, SVG Export Cognitive Services Conversation.svg Page-1 -->

<svg
   xmlns:dc="http://purl.org/dc/elements/1.1/"
   xmlns:cc="http://creativecommons.org/ns#"
   xmlns:rdf="http://www.w3.org/1999/02/22-rdf-syntax-ns#"
   xmlns:svg="http://www.w3.org/2000/svg"
   xmlns="http://www.w3.org/2000/svg"
   xmlns:sodipodi="http://sodipodi.sourceforge.net/DTD/sodipodi-0.dtd"
   xmlns:inkscape="http://www.inkscape.org/namespaces/inkscape"
   width="0.78734416in"
   height="0.78737611in"
   viewBox="0 0 56.688684 56.691104"
   xml:space="preserve"
   class="st3"
   version="1.1"
   id="svg21"
   sodipodi:docname="Cognitive Services Conversation.svg"
   style="font-size:12px;overflow:visible;color-interpolation-filters:sRGB;fill:none;fill-rule:evenodd;stroke-linecap:square;stroke-miterlimit:3"
   inkscape:version="0.92.5 (2060ec1f9f, 2020-04-08)"><metadata
   id="metadata27"><rdf:RDF><cc:Work
       rdf:about=""><dc:format>image/svg+xml</dc:format><dc:type
         rdf:resource="http://purl.org/dc/dcmitype/StillImage" /></cc:Work></rdf:RDF></metadata><defs
   id="defs25" /><sodipodi:namedview
   pagecolor="#ffffff"
   bordercolor="#666666"
   borderopacity="1"
   objecttolerance="10"
   gridtolerance="10"
   guidetolerance="10"
   inkscape:pageopacity="0"
   inkscape:pageshadow="2"
   inkscape:window-width="640"
   inkscape:window-height="480"
   id="namedview23"
   showgrid="false"
   inkscape:zoom="1.7108234"
   inkscape:cx="37.795255"
   inkscape:cy="23.619728"
   inkscape:window-x="0"
   inkscape:window-y="0"
   inkscape:window-maximized="0"
   inkscape:current-layer="svg21" />
	<style
   type="text/css"
   id="style2">
	<![CDATA[
		.st1 {fill:#0078d4;stroke:none;stroke-linecap:butt;stroke-width:12.75}
		.st2 {fill:#50e6ff;stroke:none;stroke-linecap:butt;stroke-width:12.75}
		.st3 {fill:none;fill-rule:evenodd;font-size:12px;overflow:visible;stroke-linecap:square;stroke-miterlimit:3}
	]]>
	</style>

	<g
   id="g19"
   transform="translate(-12.750083,-12.7532)">
		<title
   id="title4">Page-1</title>
		<g
   id="group18651-1"
   transform="translate(12.75,-34.0157)">
			<title
   id="title6">Cognitive Services Conversation.18651</title>
			<g
   id="shape18652-2"
   transform="translate(0,-23.9211)">
				<title
   id="title8">Sheet.18652</title>
				<path
   d="M 38.71,70.69 H 0 v 26.87 h 5.97 v 5.9 l 5.95,-5.9 h 26.79 z"
   class="st1"
   id="path10"
   inkscape:connector-curvature="0"
   style="fill:#0078d4;stroke:none;stroke-width:12.75;stroke-linecap:butt" />
			</g>
			<g
   id="shape18653-4"
   transform="translate(29.7888)">
				<title
   id="title13">Sheet.18653</title>
				<path
   d="m 0,79.54 v 17.98 h 14.96 l 5.97,5.94 V 97.52 H 26.9 V 79.54 Z"
   class="st2"
   id="path15"
   inkscape:connector-curvature="0"
   style="fill:#50e6ff;stroke:none;stroke-width:12.75;stroke-linecap:butt" />
			</g>
		</g>
	</g>
</svg>

<?xml version="1.0" encoding="UTF-8" standalone="no"?>
<!DOCTYPE svg PUBLIC "-//W3C//DTD SVG 1.1//EN" "http://www.w3.org/Graphics/SVG/1.1/DTD/svg11.dtd">
<!-- Generated by Microsoft Visio, SVG Export Cognitive Services Conversation.svg Page-1 -->
<svg xmlns="http://www.w3.org/2000/svg" xmlns:xlink="http://www.w3.org/1999/xlink" xmlns:ev="http://www.w3.org/2001/xml-events"
		width="1.14157in" height="1.43693in" viewBox="0 0 82.1929 103.459" xml:space="preserve" color-interpolation-filters="sRGB"
		class="st3">
	<style type="text/css">
	<![CDATA[
		.st1 {fill:#0078d4;stroke:none;stroke-linecap:butt;stroke-width:12.75}
		.st2 {fill:#50e6ff;stroke:none;stroke-linecap:butt;stroke-width:12.75}
		.st3 {fill:none;fill-rule:evenodd;font-size:12px;overflow:visible;stroke-linecap:square;stroke-miterlimit:3}
	]]>
	</style>

	<g>
		<title>Page-1</title>
		<g id="group18221-1" transform="translate(12.75,-34.0157)">
			<title>Cognitive Services Conversation.18221</title>
			<g id="shape18222-2" transform="translate(0,-23.9211)">
				<title>Sheet.18222</title>
				<path d="M38.71 70.69 L0 70.69 L0 97.56 L5.97 97.56 L5.97 103.46 L11.92 97.56 L38.71 97.56 L38.71 70.69 Z"
						class="st1"/>
			</g>
			<g id="shape18223-4" transform="translate(29.7888,0)">
				<title>Sheet.18223</title>
				<path d="M0 79.54 L0 97.52 L14.96 97.52 L20.93 103.46 L20.93 97.52 L26.9 97.52 L26.9 79.54 L0 79.54 Z" class="st2"/>
			</g>
		</g>
	</g>
</svg>
